!!!!SEGMENT: Ser1004h-Requiem-Communion
!!!id: Ser1004h
!!!AGN: Mass; Communion
!!!voices: 4
!!!OPR: Requiem
!!!COM: Claudin de Sermisy
!!!OTL: Communion
**kern	**kern	**kern	**kern
*part4	*part3	*part2	*part1
*staff4	*staff3	*staff2	*staff1
*I"Bassus	*I"Tenor	*I"Altus	*I"Superius
*I'B.	*I'T.	*I'A.	*I'S.
*clefF4	*clefGv2	*clefGv2	*clefGv2
*k[]	*k[]	*k[]	*k[]
*M2/1	*M2/1	*M2/1	*M2/1
*met(C|)	*met(C|)	*met(C|)	*met(C|)
=1	=1	=1	=1
!!section: Luceat eis domine
!!!OMD: Luceat eis domine
!	!	!	!LO:TX:a:t=Cantus firmus&colon; Missa pro defunctis
1D	0r	1r	0r
1F	.	1A	.
=2	=2	=2	=2
2E	0r	1c	0r
2F	.	.	.
2D	.	1B	.
[2E	.	.	.
=3	=3	=3	=3
2E]	0r	1c	1r
2F	.	.	.
2.G	.	2B	1d
.	.	[2G	.
8FL	.	.	.
8EJ	.	.	.
=4	=4	=4	=4
1D	1A	2G]	1f
.	.	2F	.
2.C	1c	[1G	1e
4D	.	.	.
=5	=5	=5	=5
4E	1B	2G]	1e
4F	.	.	.
2G	.	2.E	.
1C	2.c	.	1e
.	.	4F	.
.	.	4G	.
.	4B	4E	.
=6	=6	=6	=6
2D	2A	2F	2d
2E	1G	2G	2c
1D	.	1A	1d
.	2F#i	.	.
=7	=7	=7	=7
2r	0G	1G	1B
2GG	.	.	.
1C	.	2r	1c
.	.	2E	.
=8	=8	=8	=8
2BB	0r	1G	1r
2C	.	.	.
2AA	.	2F	2r
4GG	.	2G	[2d
4AA	.	.	.
=9	=9	=9	=9
4BB	2r	2.D	2d]
4C	.	.	.
1D	1A	.	1f
.	.	4E	.
.	.	4F	.
.	.	4G	.
2AA	[2c	[2A	2e
=10	=10	=10	=10
1D	2c]	2A]	2f
.	2B	2F	2d
1C	1c	1G	1e
=11	=11	=11	=11
0r	1A	2r	1e
.	.	2c	.
.	2r	2B	2d
.	[2c	2A	2c
=12	=12	=12	=12
2r	2c]	2.G	1d
1G	2B	.	.
.	.	4F	.
.	1A	1D	2r
2F	.	.	2d
=13	=13	=13	=13
1E	1G	2r	2c
.	.	1G	2.B
1D	1A	.	.
.	.	.	4A
.	.	2F	[2A
=14	=14	=14	=14
1r	2.B	1E	4A]
.	.	.	4G
.	.	.	1G
.	8AL	.	.
.	8GJ	.	.
2r	1A	1D	.
2D	.	.	2F#i
=15	=15	=15	=15
2.E	1G	1r	2G
.	.	.	2G
4F	.	.	.
2.G	1r	2r	2.B
.	.	2E	.
8FL	.	.	4c
8EJ	.	.	.
=16	=16	=16	=16
1.D	0r	1.F	2.d
.	.	.	4c
.	.	.	2A
4C	.	2G	[2d
4BB	.	.	.
=17	=17	=17	=17
1AA	1E	2.A	2d]
.	.	.	2c#i
.	.	8GL	.
.	.	8AJ	.
1D	1F	2B	1d
.	.	[2A	.
=18	=18	=18	=18
2.C	1G	2A]	2.e
.	.	1G	.
4BB	.	.	4d
1AA	1A	.	1c
.	.	2F#i	.
=19	=19	=19	=19
2GG	1B	2.G	2r
2.G	.	.	1d
.	.	4A	.
.	1G	2B	.
4F	.	.	.
4E	.	[2c	[2e
4D	.	.	.
=20	=20	=20	=20
2C	2A	4c]	2e]
.	.	4B	.
2E	1G	2G	2c
1D	.	1A	1d
.	2F#i	.	.
=21	=21	=21	=21
0GGl	0Gl	0Gl	0Bl
=22||	=22||	=22||	=22||
*M2/1	*M2/1	*M2/1	*M2/1
*met(C|)	*met(C|)	*met(C|)	*met(C|)
!!section: Et lux perpetua
!!!OMD: Et lux perpetua
0C	0c	0G	0e
=23	=23	=23	=23
1C	1c	1G	1e
1C	1c	1G	1e
=24	=24	=24	=24
1.AA	0c	0A	0e
2AA	.	.	.
=25	=25	=25	=25
1FF	1c	1A	1f
1C	1c	1G	2.e
.	.	.	8dL
.	.	.	8cJ
=26	=26	=26	=26
2BB	2r	1G	2d
2C	1c	.	2c
2AA	.	2F	2r
2GG	2B	2G	2d
=27	=27	=27	=27
1C	1c	4E	2e
.	.	4D	.
.	.	1G	2e
1D	1A	.	1d
.	.	2F#i	.
=28	=28	=28	=28
2r	0G	1G	1B
2GG	.	.	.
1C	.	2r	1c
.	.	2E	.
=29	=29	=29	=29
2BB	0r	1G	1r
2C	.	.	.
2AA	.	2F	2r
4GG	.	2G	[2d
4AA	.	.	.
=30	=30	=30	=30
4BB	2r	2.D	2d]
4C	.	.	.
1D	1A	.	1f
.	.	4E	.
.	.	4F	.
.	.	4G	.
2AA	[2c	[2A	2e
=31	=31	=31	=31
1D	2c]	2A]	2f
.	2B	2F	2d
1C	1c	1G	1e
=32	=32	=32	=32
0r	1A	2r	1e
.	.	2c	.
.	2r	2B	2d
.	[2c	2A	2c
=33	=33	=33	=33
2r	2c]	2.G	1d
1G	2B	.	.
.	.	4F	.
.	1A	1D	2r
2F	.	.	2d
=34	=34	=34	=34
1E	1G	2r	2c
.	.	1G	2.B
1D	1A	.	.
.	.	.	4A
.	.	2F	[2A
=35	=35	=35	=35
1r	2.B	1E	4A]
.	.	.	4G
.	.	.	1G
.	8AL	.	.
.	8GJ	.	.
2r	1A	1D	.
2D	.	.	2F#i
=36	=36	=36	=36
2.E	1G	1r	2G
.	.	.	2G
4F	.	.	.
2.G	1r	2r	2.B
.	.	2E	.
8FL	.	.	4c
8EJ	.	.	.
=37	=37	=37	=37
1.D	0r	1.F	2.d
.	.	.	4c
.	.	.	2A
4C	.	2G	[2d
4BB	.	.	.
=38	=38	=38	=38
1AA	1E	2.A	2d]
.	.	.	2c
.	.	8GL	.
.	.	8AJ	.
1D	1F	2B	1d
.	.	[2A	.
=39	=39	=39	=39
2.C	1G	2A]	2.e
.	.	1G	.
4BB	.	.	4d
1AA	1A	.	1c
.	.	2F#i	.
=40	=40	=40	=40
2GG	1B	2.G	2r
2.G	.	.	1d
.	.	4A	.
.	1G	2B	.
4F	.	.	.
4E	.	[2c	[2e
4D	.	.	.
=41	=41	=41	=41
2C	2A	4c]	2e]
.	.	4B	.
2E	1G	2G	2c
1D	.	1A	1d
.	2F#i	.	.
=42	=42	=42	=42
0GGl	0Gl	0Gl	0Bl
==	==	==	==
*-	*-	*-	*-
!!!system-decoration: s1,s2,s3,s4
!!!RDF**kern: i = editorial accidental
!!!RDF**kern: l = terminal long
!!!ENC: Max Blistain
!!!END: 2025/11/20
!!!EED: Benjamin Ory
!!!EEV: 2026/02/20
!!!YEC: Copyright 2026 Benjamin Ory, All Rights Reserved
!!!ONB: Translated from MusicXML on 2026/02/20